icons/markup-line.svg

<svg xmlns="http://www.w3.org/2000/svg" width="24" height="24" fill="none"><g clip-path="url(#a)"><g><path fill="#121212" d="M10 10.5L11.038 6.865C11.0974 6.65566 11.2235 6.47142 11.3971 6.34022C11.5707 6.20903 11.7824 6.13805 12 6.13805C12.2176 6.13805 12.4293 6.20903 12.6029 6.34022C12.7765 6.47142 12.9026 6.65566 12.962 6.865L14 10.5V12H14.72C14.9429 12 15.1595 12.0745 15.3352 12.2117C15.511 12.3488 15.6358 12.5408 15.69 12.757L17.051 18.204C18.332 17.1611 19.2587 15.7471 19.7039 14.1564C20.1492 12.5657 20.0911 10.8761 19.5376 9.31975C18.9841 7.76336 17.9625 6.41646 16.6128 5.46399C15.2632 4.51152 13.6519 4.00018 12 4.00018C10.3481 4.00018 8.73677 4.51152 7.38716 5.46399C6.03755 6.41646 5.01587 7.76336 4.46241 9.31975C3.90895 10.8761 3.85084 12.5657 4.29606 14.1564C4.74129 15.7471 5.66802 17.1611 6.949 18.204L8.311 12.757C8.36513 12.5409 8.48986 12.3491 8.6654 12.212C8.84094 12.0748 9.05724 12.0002 9.28 12H10V10.5ZM12 20C13.1252 20.0023 14.238 19.7657 15.265 19.306L13.938 14H10.062L8.735 19.306C9.76196 19.7658 10.8748 20.0023 12 20ZM12 22C6.477 22 2 17.523 2 12C2 6.477 6.477 2 12 2C17.523 2 22 6.477 22 12C22 17.523 17.523 22 12 22Z"/></g></g><defs><clipPath id="a"><rect width="24" height="24" fill="white"/></clipPath></defs></svg>

<svg width="24" height="24" fill="none" xmlns="http://www.w3.org/2000/svg"><g clip-path="url(#a)"><path d="m10 10.5 1.038-3.635a1 1 0 0 1 1.924 0L14 10.5V12h.72a1 1 0 0 1 .97.757l1.361 5.447a8 8 0 1 0-10.102 0l1.362-5.447A1 1 0 0 1 9.28 12H10v-1.5Zm2 9.5a7.952 7.952 0 0 0 3.265-.694L13.938 14h-3.876l-1.327 5.306A7.95 7.95 0 0 0 12 20Zm0 2C6.477 22 2 17.523 2 12S6.477 2 12 2s10 4.477 10 10-4.477 10-10 10Z" /></g><defs><clipPath id="a"><path fill="#fff" d="M0 0h24v24H0z"/></clipPath></defs></svg>
